X:1
T:Title
%%score ( 1 2 ) { 3 | 4 }
L:1/8
Q:1/4=105
M:4/4
K:A
V:1 treble nm="Grand Piano, Soprano"
V:2 treble 
V:3 treble nm="Choir Pad, The Message Bearers"
V:4 bass 
V:1
 [CE]2 [EA]2 [EA]>[EA] [EA]2 | [Ec]>[DB] [CA]4 z2 | [EG][EA] [EB]2 [EB]>[EB] [EB]2 | %3
w: By~Tullius~Clinton~O�Kane * * * *|||
 [Ed]>[Ec] [EB]6 | [EA][EB] [Ec]2 [Ec]>[Ec] [Ec]2 | [EB]>[EA] [FA]4 [DF]2 | %6
w: |||
 [Fd][Fd] [Ec]2 [Ec]>[Ac] [GB]2 | [Gc]>[EB] [EA]6 | [EG]>[FA] [GB]6 | [CA]>[DB] [Ec]4 z2 | %10
w: ||||
 [Ac]2 [Gd]2 [Gd]>[Gd] [Ac]2 | [Ae]>[Ac] B2- [GB]>G G2 | z2 c6 | B>A F2 [Fd]>[Fd] [Fd]2 | %14
w: ||||
 [Fd]2 [Ec]2 [Ac]>[Ac] [GB]2 | [Ec]>[EB] [EA]6- | [EA]2 z2 z4 |] %17
w: |||
V:2
 x8 | x8 | x8 | x8 | x8 | x8 | x8 | x8 | x8 | x8 | x8 | z2 G2 z4 | e>d z2 E>E E2 | x8 | x8 | x8 | %16
 x8 |] %17
V:3
 A,2 C2 C>C C2 | A,>G, A,4 z2 | B,A, G,2 G,>G, G,2 | B,>A, G,6 | A,G, A,2 A,>A, A,2 | G,>A, A,6 | %6
 A,A, A,2 A,>[K:treble]C D2 | E>D C6 | z4[K:bass] B,>B, B,2 | z4[K:treble] C>C C2 | E2 E2 E>E E2 | %11
 C>E E4 z2 | z4[K:bass] A,,>A,, A,,2 | D>C D2 A,>A, A,2 | A,2 A,[K:treble]C E>E D2 | E>D C6- | %16
 C2 z2 z4 |] %17
V:4
 A,,2 A,,2 A,,>A,, A,,2 | E,>E, A,,4 z2 | E,E, E,2 E,>E, E,2 | E,>E, E,6 | %4
 C,B,, A,,2 A,,>A,, A,,2 | B,,>C, D,6 | D,D, E,2 E,>E, E,2 | E,>E, A,,6 | z4 E,>E, E,2 | %9
 z4 A,>A, A,2 | A,2 B,2 B,>B, A,2 | A,>A, E,2 E,>E, E,2 | C>B, A,6 | z4 D,>D, D,2 | %14
 D,2 E,2 E,>E, E,2 | E,>E, A,,6- | A,,2 z2 z4 |] %17

